!!!!SEGMENT: pl-wtm--r-730-9-m_moniuszko-stanislaw--wczoraj-zyjac-twem-spoyrzeniem.krn
!!!cenid: 18xx:1689
!!!COM: Moniuszko, Stanisław
!!!COM-rismID: pe30008351
!!!CDT: 1819/05/05-1872/06/04
!!!CNT: Polish
!!!OTL: Wczoraj żyjąc twem spóyrzeniem
!!!PDT:
!!!AGN: Secular
!!!SMS-siglum: PL-Wtm
!!!SMS-shelfmark: R 730/9/M
!!!SMS-shelfwork: W
!!!SMS-variant:
!!!SMS-altvar:
!!!NIFC-rismSourceID: 1001099782
!!!NIFC-rismChildID: 1001099782
!!!NIFC-islandoraID:
!!!URL-pdf-islandora:
!!!URL-scan:
!!!IIIF:
!!!ONB-nifc: Skan 0016. No. 761
!!!AIN: 2 forte 1 vox
!!!key:
**kern	**kern	**kern	**text
*part3	*part2	*part1	*part1
*staff3	*staff2	*staff1	*staff1
*>[A,B,B]	*>[A,B,B]	*>[A,B,B]	*
*Iforte	*Iforte	*Ivox	*
*I"Fortepian	*I"Fortepian	*I"[Voice]	*
*I'pf	*I'pf	*I'[V]	*
*clefF4	*clefG2	*clefG2	*
*k[f#c#]	*k[f#c#]	*k[f#c#]	*
*D:	*D:	*D:	*
*M4/4	*M4/4	*M4/4	*
*met(C.)	*met(C.)	*met(C.)	*
=1	=1	=1	=1
*>A	*>A	*>A	*
*	*^	*	*
8qCC#/	.	.	.	.
!	!	!	!LO:TX:a:i:t=Moderato.	!
8DD/	4r	2rFyy	1r	.
8r	.	.	.	.
8.a>L 8.d>\	8.ff#L 8.dd/	.	.	.
16a>Jk 16d>\	16ff#Jk 16dd/	.	.	.
4e> 4A>\	(<8.bbL 8.cc#/	4rFyy	.	.
.	16aa/Jk)	.	.	.
4E 4AA\	(<8b/L	4g\	.	.
.	8cc#/J)	.	.	.
*	*v	*v	*	*
=2	=2	=2	=2
4D\	4dd 4f#/	1r	.
8.AL 8.D\	8.f#L 8.d/	.	.
16AJk 16D\	16f#Jk 16d/	.	.
4A 4D\	4f# 4d/	.	.
4A 4D\	4f# 4d/	.	.
=3||	=3||	=3||	=3||
*>B	*>B	*>B	*
!LO:TX:t=P:problem="wężykowata" linia (segno)	!LO:TX:t=P:problem="wężykowata" linia (segno)	!LO:TX:t=P:problem="wężykowata" linia (segno)	!
4A 4D\	4f# 4d/	4.f#/	Wczo-
8.AL 8.D\	8.f#L 8.d/	.	.
.	.	8f#/	-ray
16AJk 16D\	16f#Jk 16d/	.	.
4A 4D\	4f# 4d/	8.f#/	ży-
.	.	16d/	-iąc
4A 4C#\	4g 4e/	8.g/	twem
.	.	16e/	.
!!LO:LB:g=original
=4	=4	=4	=4
4D 4BB/	4g#X 4e#X/	2g#X/	spóyrze-
8.DL 8.AA/	8.aL 8.f#/	.	.
16DJk 16FF#/	16aJk 16f#/	.	.
4AA 4DD/	4f# 4d/	8a/	-niem
.	.	16r	.
.	.	16dd\	ca-
4A 4D\	4f# 4d/	8.a/	-łe-
.	.	16f#/	-gom
=5	=5	=5	=5
4c# 4B-X 4D\	4g/	(<4e/	swia-
4c# 4B- 4D\	8f#/L	8d#X/L	.
.	8g/J	8e/J)	.
4c# 4B- 4D\	4a/	4.f#/	-ta
4c# 4B- 4D\	4g/	.	.
.	.	8e/	za-
=6	=6	=6	=6
4d 4A 4D\	4f#/	8d/	-by-
.	.	8d/	-wał
8.a>L 8.d>\	8.ff#L 8.dd/	4r	.
16a>Jk 16d>\	16ff#Jk 16dd/	.	.
4e> 4A>\	4aa 4cc#/	2r	.
8.C#/L	8.aL 8.e#X/	.	.
16C#/Jk	16aJk 16e#/	.	.
=7	=7	=7	=7
4D\	4a 4f#/	4.a/	Upo-
4D\	8f#/L	.	.
.	8a/J	8a/	-io-
!	!LO:SIC:v:s=g#	!	!
4D\	8g/L	8g#X/	-ny
.	8b/J	8g#/	u-
4D\	8a/L	8f#/	-nie-
.	8b#X/J	8f#/	.
!!LO:LB:g=original
=8	=8	=8	=8
*	*^	*	*
!	!	!	!LO:TX:t=P:problem=mixed beam	!
4C#/	8r	2rAyy	(>8e#X/L	-sie-
.	8dd\	.	8dd\J)	.
4E#X/	[>4cc# 4g#X\	.	4cc#\	-niu
8.c#L 8.E#/	4cc#/]	8.g#\L	4r	.
16c#Jk 16E#/	.	16g#\Jk	.	.
4d/ 4E#/	4b 4g#/	4rAyy	8g/	Pie-
.	.	.	8b/	-śni
*	*v	*v	*	*
=9	=9	=9	=9
4c# [<4F#\	4a/	4a/	twey
(>8dL 8F#\]	(>8b\L	(<8b/L	chwy-
8d#XJ 8Fn\)	8b#X\J)	8a/J)	.
4e 4E\	4cc# 4a\	4f#/	-ta-
!	!LO:SIC:v:s=g#	!	!
[>4E\	4g 4d/	8.f#/L	-iąc
.	.	16e/Jk	.
=10	=10	=10	=10
8E]L 8AA\	8a 8c#/	2e/	dzwię-
8A\	8r	.	.
8A\	4r	.	.
8A\J	.	.	.
8A\L	4r	4c#/	-ki
8A\	.	.	.
8A\	8gg#XL 8g#X\	4r	.
8A\J	8aaJ 8a\	.	.
=11	=11	=11	=11
*^	*	*	*
*tremolo	*	*	*	*
8A 8G/L	8C#\L	(>4aa 4a\	8a/	Rze-
8A 8G/	8D\	.	8a/	-kłem
8A 8G/	8D#X\	4ggn 4gn\)	4r	.
8A 8G/J	8E\J	.	.	.
8A 8G/L	8C#\L	4r	8cc#^>\	bos-
8A 8G/	8AA\J	.	8cc#\	-ka
8A 8G/	4r	8gg#XL 8g#X\	8b\	tyś
8A 8G/J	.	8aaJ 8a\	8a\	dzie-
!!LO:PB:g=original
=12	=12	=12	=12	=12
8A 8F#/L	8D\L	4aa 4a\	[>4dd\	-wi-
8A 8F#/	8C#\	.	.	.
8A 8F#/	8D\	4ff# 4f#\	16dd\LL]	.
.	.	.	16cc#\	.
8A 8F#/J	8BB\J	.	16dd\	.
.	.	.	16b\JJ	.
8A 8F#/	8AA\L	8.ff#\L	4a/	-ca
8ryy	8F# 8FF#\	.	.	.
.	.	16ee\K	.	.
4ryy	8G 8GG\	8.dd 8.b\	8.dd\	ar-
.	8GJ 8GG\	.	.	.
.	.	16bJk 16g\	16f#/	-cy-
=13	=13	=13	=13	=13
8A/L	4AA\	4a 4f#/	4.a/	-dzie-
8A/	.	.	.	.
8A/	4D#X\	4a 4f# 4B#X/	.	.
8A/J	.	.	8a/	-ło
*Xtremolo	*	*	*	*
8A/	8E\	8aL 8g 8c#/	4.a/	twór-
8r	8rCCyy	8a 8g 8e/	.	.
4AA/	4rAAAyy	8a 8g 8c#/	.	.
.	.	8aJ 8g 8A/	8g/	-czey
*v	*v	*	*	*
=14	=14	=14	=14
4D\	4a 4f# 4d/	8f#/	rę-
.	.	8dd\	-ki
4F#\	4a#X 4d/	8cc#X\	ar-
.	.	8dd\	-cy-
4G\	4b 4d/	8ee\L	-dzie-
.	.	8dd\J	.
4B\	4g 4d/	8cc#\L	.
.	.	8b\J	-ło
!!LO:LB:g=original
=15	=15	=15	=15
8A\	8f# 8d/	(<8a/	twór-
8r	8r	4cc#^<;>/)	.
(>4E 4AA\	(<4g 4c#/	.	.
!	!LO:TX:i:b:t=ritar&colon;	!LO:N:vis=16	!
.	.	(<32cc#/LLL	-czey
!	!	!LO:TX:i:a:t=ritar&colon;	!
!	!	!LO:N:vis=16	!
.	.	32b/	.
!	!	!LO:N:vis=16	!
.	.	32a/	.
!	!	!LO:N:vis=16	!
.	.	32f#/JJJ)	.
8D\)	8f# 8d/)	4d;>/	ręki.
8r	8r	.	.
4r	4r	4r	.
=16	=16	=16	=16
*	*^	*	*
8qCC#/	.	.	.	.
8DD/	4r	2rFyy	1r	.
8r	.	.	.	.
8.a>L 8.d>\	8.ff#L 8.dd/	.	.	.
16a>Jk 16d>\	16ff#Jk 16dd/	.	.	.
4e> 4A>\	8aaL 8cc#/	4rAyy	.	.
.	8gg/J	.	.	.
4E 4AA/	8b/L	4g\	.	.
.	8cc#/J	.	.	.
*	*v	*v	*	*
=17	=17	=17	=17
4D\	4dd 4f#/	1r	.
8.GG\L	8.dL 8.B-X 8.G</	.	.
16GG\Jk	16dJk 16B- 16G</	.	.
4DD\	4d 4A< 4F#</	.	.
!LO:TX:t=P:problem="wężykowata" linia (segno)	!LO:TX:t=P:problem="wężykowata" linia (segno)	!LO:TX:t=P:problem="wężykowata" linia (segno)	!
!	!LO:TX:i:b:t=D&colon; S&colon;	!	!
4r	4r	.	.
==	==	==	==
*-	*-	*-	*-
!!!system-decoration: [(s1),(s2,s3)]
!!!RDF**kern: > = above
!!!RDF**kern: < = below
!!!EED: Antoni Szymański
!!!EEV: 2021-04-22
!!!ENC: Marcin Jachim
!!!END: 2021-04-02
!!!YEC: Copyright 2022 Narodowy Instytut Fryderyka Chopina (https://polishscores.org)
!!!YEM: License CC-BY-4.0 (https://creativecommons.org/licenses/by/4.0)
